X:352
T: Mdchen, machs Fenster auf (4-51), S. 69
N: P0612
O: Lothringen
S: PINCK, Louis: Verklingende Weisen Bd 4, Kassel 1939]
R: Fenstergangslied, Liebe]
M: 3/8
L: 1/16
K: G
 | G3A2B | G3AB2 | G2F2G2 | A4z2 |
A3Bc2 | B3cB2 | AAB2AA | G3AB2 | D2E2F2 | G4z2

@@@ Tune index: 7902
